src/assets/icons/word.svg

<?xml version="1.0" encoding="UTF-8" standalone="no"?>
<svg
   viewBox="0 0 50 50"
   fill="#5B5B5B"
   version="1.1"
   id="svg1"
   sodipodi:docname="word.svg"
   inkscape:version="1.4.2 (f4327f4, 2025-05-13)"
   xmlns:inkscape="http://www.inkscape.org/namespaces/inkscape"
   xmlns:sodipodi="http://sodipodi.sourceforge.net/DTD/sodipodi-0.dtd"
   xmlns="http://www.w3.org/2000/svg"
   xmlns:svg="http://www.w3.org/2000/svg">
  <defs
     id="defs1" />
  <sodipodi:namedview
     id="namedview1"
     pagecolor="#ffffff"
     bordercolor="#000000"
     borderopacity="0.25"
     inkscape:showpageshadow="2"
     inkscape:pageopacity="0.0"
     inkscape:pagecheckerboard="0"
     inkscape:deskcolor="#d1d1d1"
     inkscape:zoom="16.74"
     inkscape:cx="24.970131"
     inkscape:cy="20.818399"
     inkscape:window-width="1920"
     inkscape:window-height="1051"
     inkscape:window-x="-9"
     inkscape:window-y="-9"
     inkscape:window-maximized="1"
     inkscape:current-layer="svg1" />
  <path
     d="m 4.625,15.65625 3.8125,18.6875 h 3.75 L 14.65625,22.375 C 14.769531,21.824219 14.875,21.101563 14.9375,20.25 h 0.03125 c 0.02734,0.773438 0.08984,1.5 0.21875,2.125 l 2.40625,11.96875 h 3.625 L 25.0625,15.65625 H 21.75 l -2,12.46875 c -0.117187,0.703125 -0.19141,1.40625 -0.21875,2.09375 H 19.5 c -0.06641,-0.878906 -0.13281,-1.539062 -0.21875,-2 l -2.375,-12.5625 h -3.5 l -2.625,12.40625 c -0.167969,0.792969 -0.28516,1.519531 -0.3125,2.1875 h -0.0625 c -0.03906,-0.894531 -0.09766,-1.628906 -0.1875,-2.15625 L 8.1875,15.65625 Z"
     id="path4"
     sodipodi:nodetypes="ccccccccccccccccccccccc"
     style="fill:#ffffff" />
  <path
     d="m 32,6 v 7 h 12 v 2 H 32 v 5 h 12 v 2 H 32 v 5 h 12 v 2 H 32 v 6 h 12 v 2 H 32 v 7 h 15 c 1.101563,0 2,-0.898437 2,-2 V 8 C 49,6.898438 48.101563,6 47,6 Z"
     id="path3"
     sodipodi:nodetypes="ccccccccccccccccccssssc"
     style="fill:#2196f3;fill-opacity:1" />
  <path
     d="M 29.03125,0.00976563 C 28.95935,0.00970459 28.885742,0.01757813 28.8125,0.03125 l -28,5.3125 C 0.339844,5.433594 0,5.863281 0,6.34375 v 37.3125 c 0,0.480469 0.339844,0.910156 0.8125,1 l 28,5.3125 C 28.875,49.980469 28.9375,50 29,50 29.230469,50 29.445313,49.92969 29.625,49.78125 29.855469,49.589844 30,49.296875 30,49 V 1 C 30,0.703125 29.855469,0.410156 29.625,0.21875 29.452148,0.07519535 29.246948,0.00994874 29.03125,0.00976563 Z M 4.625,15.65625 h 3.5625 l 2.03125,12.4375 c 0.08984,0.527344 0.148438,1.261719 0.1875,2.15625 h 0.0625 c 0.02734,-0.667969 0.144531,-1.394531 0.3125,-2.1875 l 2.625,-12.40625 h 3.5 l 2.375,12.5625 c 0.08594,0.460938 0.152344,1.121094 0.21875,2 h 0.03125 C 19.55859,29.53125 19.632813,28.828125 19.75,28.125 l 2,-12.46875 h 3.3125 l -3.84375,18.6875 h -3.625 L 15.1875,22.375 C 15.058594,21.75 14.996094,21.023438 14.96875,20.25 H 14.9375 c -0.0625,0.851563 -0.167969,1.574219 -0.28125,2.125 L 12.1875,34.34375 h -3.75 z"
     id="path2"
     sodipodi:nodetypes="sccssccscssssccccccccccccccccccccccc"
     style="fill:#0d47a1;fill-opacity:1" />
</svg>

<svg xmlns="http://www.w3.org/2000/svg" xmlns:xlink="http://www.w3.org/1999/xlink" viewBox="0 0 50 50" fill="#5B5B5B">
  <path d="M28.8125 0.03125L0.8125 5.34375C0.339844 5.433594 0 5.863281 0 6.34375L0 43.65625C0 44.136719 0.339844 44.566406 0.8125 44.65625L28.8125 49.96875C28.875 49.980469 28.9375 50 29 50C29.230469 50 29.445313 49.929688 29.625 49.78125C29.855469 49.589844 30 49.296875 30 49L30 1C30 0.703125 29.855469 0.410156 29.625 0.21875C29.394531 0.0273438 29.105469 -0.0234375 28.8125 0.03125 Z M 32 6L32 13L44 13L44 15L32 15L32 20L44 20L44 22L32 22L32 27L44 27L44 29L32 29L32 35L44 35L44 37L32 37L32 44L47 44C48.101563 44 49 43.101563 49 42L49 8C49 6.898438 48.101563 6 47 6 Z M 4.625 15.65625L8.1875 15.65625L10.21875 28.09375C10.308594 28.621094 10.367188 29.355469 10.40625 30.25L10.46875 30.25C10.496094 29.582031 10.613281 28.855469 10.78125 28.0625L13.40625 15.65625L16.90625 15.65625L19.28125 28.21875C19.367188 28.679688 19.433594 29.339844 19.5 30.21875L19.53125 30.21875C19.558594 29.53125 19.632813 28.828125 19.75 28.125L21.75 15.65625L25.0625 15.65625L21.21875 34.34375L17.59375 34.34375L15.1875 22.375C15.058594 21.75 14.996094 21.023438 14.96875 20.25L14.9375 20.25C14.875 21.101563 14.769531 21.824219 14.65625 22.375L12.1875 34.34375L8.4375 34.34375Z" fill="#5B5B5B" />
</svg>
